X:64
T:Jigs simple chords 277
M:3/4
L:1/8
K:Am
[cC,E,G,]G EF ED | [CC,E,G,]E CD B,G, | [CC,E,G,]E Gc eg | [fD,F,A,]d cB AB | [cC,E,G,]G EF ED |
[CC,E,G,]E CD B,G, | [CC,E,G,]E Gc eg | [fG,B,D]d B2<c2 | [cC,E,G,]G EF ED |
[CC,E,G,]E CD B,G, | [CC,E,G,]E Gc eg | [fD,F,A,]d cB AB | [cC,E,G,]G EF ED |
[CC,E,G,]E CD B,G, | [CC,E,G,]E Gc eg | [fG,B,D]d B2<c2 | [AA,CE]B cc BA |
[^G2E,2G,2B,2] EA2E | [FD,F,A,]E DD EF | [E2A,2C2E2] CA,2C | [B,E,^G,B,]C DD CB, |
[A,A,CE]C EA Bc | [B2E,2^G,2B,2] G^F GF | [E3E,3^G,3B,3]E2G | [AA,CE]B cc BA |
[^G2E,2G,2B,2] EA2E | [FD,F,A,]E DD EF | [E2A,2C2E2] CA,2C | [B,E,^G,B,]C DD CB, |
[A,A,CE]C EA ce | [fF,A,C]e dc2B | [A3A,3C3E3]G3 |


